src/icon/entity/chat-photo/icon_chat-photo_l_white.svg

<svg xmlns="http://www.w3.org/2000/svg" width="36" height="36" viewBox="0 0 36 36"><g fill="none" fill-rule="evenodd"><polygon points="0 0 36 0 36 36 0 36"/><path fill="#FFF" fill-rule="nonzero" d="M9,11 C7.8954305,11 7,11.8954305 7,13 L7,29 C7,30.1045695 7.8954305,31 9,31 L32,31 C33.1045695,31 34,30.1045695 34,29 L34,13 C34,11.8954305 33.1045695,11 32,11 L9,11 Z M9,10 L32,10 C33.6568542,10 35,11.3431458 35,13 L35,29 C35,30.6568542 33.6568542,32 32,32 L9,32 C7.34314575,32 6,30.6568542 6,29 L6,13 C6,11.3431458 7.34314575,10 9,10 Z"/><circle cx="12.5" cy="16.5" r="2.5" fill="#FFF" fill-rule="nonzero" opacity=".3"/><path fill="#FFF" fill-rule="nonzero" d="M15.6836632,28 L10.9282019,28 C10.3759171,28 9.92820189,27.5522847 9.92820189,27 C9.92820189,26.7292591 10.0379804,26.4700883 10.2324484,26.2817194 L14.197678,22.4408492 C14.7793598,21.8774104 15.7032568,21.8774104 16.2849386,22.4408492 L18.5241713,24.609854 L22.7911929,19.5171646 C23.323238,18.8821689 24.2693115,18.7987109 24.9043072,19.330756 C24.9717937,19.3873011 25.0341707,19.4496781 25.0907158,19.5171646 L30.8222627,26.3577648 C31.1769594,26.7810952 31.1213208,27.4118109 30.6979903,27.7665076 C30.5179723,27.9173397 30.29061,28 30.0557551,28 L15.6836632,28 Z" opacity=".3"/><path fill="#FFF" fill-rule="nonzero" d="M30,10 L30,7 C30,5.34314575 28.6568542,4 27,4 L4,4 C2.34314575,4 1,5.34314575 1,7 L1,23 C1,24.6568542 2.34314575,26 4,26 L6,26 L6,25 L4,25 C2.8954305,25 2,24.1045695 2,23 L2,7 C2,5.8954305 2.8954305,5 4,5 L27,5 C28.1045695,5 29,5.8954305 29,7 L29,10 L30,10 Z M30,7 C30,5.34314575 28.6568542,4 27,4 L4,4 C2.34314575,4 1,5.34314575 1,7 L1,23 C1,24.6568542 2.34314575,26 4,26 L6,26 L6,25 L4,25 C2.8954305,25 2,24.1045695 2,23 L2,7 C2,5.8954305 2.8954305,5 4,5 L27,5 C28.1045695,5 29,5.8954305 29,7 L29,10 L30,10 L30,7 Z"/></g></svg>

<svg xmlns="http://www.w3.org/2000/svg" width="36" height="36" viewBox="0 0 36 36"><g fill="none" fill-rule="evenodd"><path d="M0 0h36v36H0z"/><path fill="#FFF" fill-rule="nonzero" d="M9 11a2 2 0 0 0-2 2v16a2 2 0 0 0 2 2h23a2 2 0 0 0 2-2V13a2 2 0 0 0-2-2H9zm0-1h23a3 3 0 0 1 3 3v16a3 3 0 0 1-3 3H9a3 3 0 0 1-3-3V13a3 3 0 0 1 3-3z"/><circle cx="12.5" cy="16.5" r="2.5" fill="#FFF" fill-rule="nonzero" opacity=".3"/><path fill="#FFF" fill-rule="nonzero" d="M15.684 28h-4.756a1 1 0 0 1-.696-1.718l3.966-3.841a1.5 1.5 0 0 1 2.087 0l2.24 2.169 4.266-5.093a1.5 1.5 0 0 1 2.3 0l5.731 6.84A1 1 0 0 1 30.056 28H15.684z" opacity=".3"/><path fill="#FFF" fill-rule="nonzero" d="M30 10V7a3 3 0 0 0-3-3H4a3 3 0 0 0-3 3v16a3 3 0 0 0 3 3h2v-1H4a2 2 0 0 1-2-2V7a2 2 0 0 1 2-2h23a2 2 0 0 1 2 2v3h1zm0-3a3 3 0 0 0-3-3H4a3 3 0 0 0-3 3v16a3 3 0 0 0 3 3h2v-1H4a2 2 0 0 1-2-2V7a2 2 0 0 1 2-2h23a2 2 0 0 1 2 2v3h1V7z"/></g></svg>
